static/img/olake/olake-product-7.svg

<svg width="72" height="72" viewBox="0 0 72 72" fill="none" xmlns="http://www.w3.org/2000/svg">
<circle cx="36" cy="36" r="36" fill="#333333"/>
<path fill-rule="evenodd" clip-rule="evenodd" d="M22.6666 21.0003C21.7538 21.0003 21 21.7541 21 22.667V39.3337C21 40.2465 21.7538 41.0003 22.6666 41.0003C23.5871 41.0003 24.3333 41.7465 24.3333 42.667C24.3333 43.5875 23.5871 44.3337 22.6666 44.3337C19.9128 44.3337 17.6666 42.0875 17.6666 39.3337V22.667C17.6666 19.9132 19.9128 17.667 22.6666 17.667H39.3333C42.0871 17.667 44.3333 19.9132 44.3333 22.667C44.3333 23.5875 43.5871 24.3337 42.6666 24.3337C41.7462 24.3337 41 23.5875 41 22.667C41 21.7541 40.2462 21.0003 39.3333 21.0003H22.6666ZM32.6666 31.0003C31.7462 31.0003 31 31.7465 31 32.667V49.3337C31 50.2541 31.7462 51.0003 32.6666 51.0003H49.3333C50.2538 51.0003 51 50.2541 51 49.3337V32.667C51 31.7465 50.2538 31.0003 49.3333 31.0003H32.6666ZM27.6666 32.667C27.6666 29.9056 29.9052 27.667 32.6666 27.667H49.3333C52.0947 27.667 54.3333 29.9056 54.3333 32.667V49.3337C54.3333 52.0951 52.0947 54.3337 49.3333 54.3337H32.6666C29.9052 54.3337 27.6666 52.0951 27.6666 49.3337V32.667Z" fill="#193AE6"/>
</svg>

<svg xmlns="http://www.w3.org/2000/svg" width="72" height="72" fill="none" viewBox="0 0 72 72"><circle cx="36" cy="36" r="36" fill="#333"/><path fill="#193ae6" fill-rule="evenodd" d="M22.667 21c-.913 0-1.667.754-1.667 1.667v16.667c0 .912.754 1.666 1.667 1.666a1.667 1.667 0 1 1 0 3.334 5.01 5.01 0 0 1-5-5V22.667c0-2.754 2.246-5 5-5h16.666c2.754 0 5 2.246 5 5a1.667 1.667 0 1 1-3.333 0c0-.913-.754-1.667-1.667-1.667zm10 10c-.92 0-1.667.747-1.667 1.667v16.667c0 .92.746 1.666 1.667 1.666h16.666c.92 0 1.667-.746 1.667-1.666V32.667c0-.92-.746-1.667-1.667-1.667zm-5 1.667a5 5 0 0 1 5-5h16.666a5 5 0 0 1 5 5v16.667a5 5 0 0 1-5 5H32.667a5 5 0 0 1-5-5z" clip-rule="evenodd"/></svg>
